TileServer und Tiles/svg/9/34_1.svg

<?xml version='1.0' encoding='UTF-8' standalone='no'?>
<svg xmlns="http://www.w3.org/2000/svg" width="497pt" viewBox="0 0 497 279" xmlns:xlink="http://www.w3.org/1999/xlink" height="279pt">
 <defs style="stroke:none;" overflow="visible">
  <path id="glyph0-6" d="M 7.046875 -9.234375 L 8.109375 -9.234375 L 8.109375 -10.359375 L 10.5625 -10.359375 L 10.5625 -9.234375 L 11.640625 -9.234375 L 11.640625 -10.359375 L 14.140625 -10.359375 L 14.140625 -11.3125 L 11.640625 -11.3125 L 11.640625 -12.546875 L 10.5625 -12.546875 L 10.5625 -11.3125 L 8.109375 -11.3125 L 8.109375 -12.546875 L 7.046875 -12.546875 L 7.046875 -11.3125 L 4.75 -11.3125 L 4.75 -10.359375 L 7.046875 -10.359375 Z M 4.421875 -10.421875 C 3.921875 -10.953125 2.890625 -11.703125 2.0625 -12.203125 L 1.390625 -11.46875 C 2.1875 -10.9375 3.203125 -10.140625 3.6875 -9.59375 Z M 3.78125 -6.65625 C 3.234375 -7.140625 2.171875 -7.8125 1.34375 -8.25 L 0.6875 -7.484375 C 1.53125 -7 2.578125 -6.296875 3.09375 -5.796875 Z M 3.25 -4.625 C 2.578125 -2.953125 1.640625 -1.046875 0.984375 0.109375 L 2 0.75 C 2.703125 -0.625 3.515625 -2.4375 4.140625 -3.96875 Z M 6.53125 -6.25 L 12.1875 -6.25 L 12.1875 -5.1875 L 6.53125 -5.1875 Z M 6.53125 -8.109375 L 12.1875 -8.109375 L 12.1875 -7.046875 L 6.53125 -7.046875 Z M 14.21875 -2.15625 L 14.21875 -3.109375 L 9.59375 -3.109375 C 9.6875 -3.5 9.75 -3.921875 9.8125 -4.34375 L 13.25 -4.34375 L 13.25 -8.953125 L 5.46875 -8.953125 L 5.46875 -4.34375 L 8.71875 -4.34375 C 8.65625 -3.90625 8.59375 -3.484375 8.484375 -3.109375 L 4.484375 -3.109375 L 4.484375 -2.15625 L 8.125 -2.15625 C 7.53125 -0.984375 6.359375 -0.203125 3.96875 0.265625 C 4.1875 0.484375 4.453125 0.921875 4.546875 1.15625 C 7.375 0.546875 8.703125 -0.53125 9.328125 -2.15625 C 10.15625 -0.484375 11.6875 0.640625 13.78125 1.15625 C 13.921875 0.875 14.21875 0.4375 14.453125 0.21875 C 12.625 -0.125 11.203125 -0.9375 10.390625 -2.15625 Z M 14.21875 -2.15625 "/>
  <path id="glyph0-5" d="M 8.953125 -12.515625 L 8.953125 -4.75 C 8.953125 -4.546875 8.875 -4.484375 8.65625 -4.484375 C 8.4375 -4.46875 7.6875 -4.46875 6.875 -4.484375 C 7.015625 -4.171875 7.203125 -3.703125 7.25 -3.40625 C 8.34375 -3.40625 9.046875 -3.421875 9.484375 -3.59375 C 9.921875 -3.78125 10.0625 -4.109375 10.0625 -4.734375 L 10.0625 -12.515625 Z M 6.484375 -10.125 C 6.046875 -8.5625 5.328125 -6.96875 4.484375 -5.90625 C 4.75 -5.78125 5.21875 -5.5 5.4375 -5.34375 C 6.265625 -6.453125 7.046875 -8.1875 7.5625 -9.90625 Z M 11.4375 -9.890625 C 12.265625 -8.625 13.125 -6.921875 13.4375 -5.78125 L 14.453125 -6.25 C 14.109375 -7.359375 13.25 -9.046875 12.359375 -10.296875 Z M 12.296875 -5.75 C 11.265625 -2.4375 8.96875 -0.625 4.90625 0.171875 C 5.140625 0.421875 5.421875 0.859375 5.515625 1.1875 C 9.8125 0.1875 12.25 -1.8125 13.34375 -5.4375 Z M 1.421875 -11.625 C 2.390625 -11.171875 3.5625 -10.4375 4.125 -9.90625 L 4.78125 -10.78125 C 4.1875 -11.34375 3 -12.015625 2.046875 -12.421875 Z M 0.625 -7.609375 C 1.609375 -7.171875 2.796875 -6.484375 3.390625 -5.96875 L 4 -6.90625 C 3.40625 -7.390625 2.1875 -8.046875 1.234375 -8.421875 Z M 1.109375 0.203125 L 2.0625 0.9375 C 2.875 -0.453125 3.875 -2.3125 4.609375 -3.890625 L 3.78125 -4.59375 C 2.953125 -2.890625 1.875 -0.9375 1.109375 0.203125 Z M 1.109375 0.203125 "/>
  <path id="glyph0-4" d="M 4.828125 -10.84375 C 5.765625 -11.046875 6.640625 -11.28125 7.328125 -11.53125 L 6.578125 -12.40625 C 5.265625 -11.875 2.921875 -11.4375 0.9375 -11.15625 C 1.078125 -10.90625 1.203125 -10.546875 1.265625 -10.28125 C 2.0625 -10.375 2.890625 -10.5 3.734375 -10.640625 L 3.734375 -8.140625 L 0.8125 -8.140625 L 0.8125 -7.109375 L 3.453125 -7.109375 C 2.78125 -5.234375 1.578125 -3.1875 0.4375 -2.046875 C 0.640625 -1.765625 0.9375 -1.3125 1.0625 -1.015625 C 2.03125 -2.0625 3 -3.75 3.734375 -5.484375 L 3.734375 1.109375 L 4.828125 1.109375 L 4.828125 -5.4375 C 5.46875 -4.609375 6.3125 -3.484375 6.65625 -2.90625 L 7.328125 -3.828125 C 6.953125 -4.296875 5.40625 -6.125 4.828125 -6.71875 L 4.828125 -7.109375 L 7.4375 -7.109375 L 7.4375 -8.140625 L 4.828125 -8.140625 Z M 9.046875 -1.828125 L 9.046875 -10.09375 L 12.390625 -10.09375 L 12.390625 -1.828125 Z M 7.953125 -11.15625 L 7.953125 0.484375 L 9.046875 0.484375 L 9.046875 -0.75 L 12.390625 -0.75 L 12.390625 0.375 L 13.5 0.375 L 13.5 -11.15625 Z M 7.953125 -11.15625 "/>
  <path id="glyph0-3" d="M 14.0625 -9.1875 L 14.0625 -10.265625 L 6.4375 -10.265625 C 6.6875 -10.9375 6.9375 -11.609375 7.15625 -12.28125 L 6 -12.5625 C 5.796875 -11.796875 5.53125 -11.03125 5.203125 -10.265625 L 0.953125 -10.265625 L 0.953125 -9.1875 L 4.71875 -9.1875 C 3.71875 -7.203125 2.34375 -5.359375 0.53125 -4.125 C 0.75 -3.890625 1.03125 -3.46875 1.1875 -3.1875 C 2 -3.75 2.71875 -4.40625 3.359375 -5.140625 L 3.359375 -0.21875 L 4.46875 -0.21875 L 4.46875 -5.40625 L 7.65625 -5.40625 L 7.65625 1.171875 L 8.765625 1.171875 L 8.765625 -5.40625 L 12.140625 -5.40625 L 12.140625 -1.671875 C 12.140625 -1.453125 12.0625 -1.390625 11.8125 -1.375 C 11.578125 -1.375 10.703125 -1.359375 9.75 -1.390625 C 9.90625 -1.09375 10.0625 -0.6875 10.109375 -0.390625 C 11.40625 -0.375 12.1875 -0.390625 12.640625 -0.5625 C 13.109375 -0.734375 13.25 -1.046875 13.25 -1.65625 L 13.25 -6.453125 L 8.765625 -6.453125 L 8.765625 -8.453125 L 7.65625 -8.453125 L 7.65625 -6.453125 L 4.375 -6.453125 C 4.984375 -7.3125 5.5 -8.21875 5.953125 -9.1875 Z M 14.0625 -9.1875 "/>
  <path id="glyph0-2" d="M 5.921875 -9.90625 C 5.609375 -10.609375 4.828125 -11.703125 4.140625 -12.484375 L 3.203125 -12.03125 C 3.890625 -11.203125 4.640625 -10.078125 4.9375 -9.375 Z M 13.546875 -9.1875 L 9.9375 -9.1875 C 10.578125 -10.03125 11.296875 -11.171875 11.84375 -12.1875 L 10.71875 -12.546875 C 10.25 -11.515625 9.421875 -10.109375 8.734375 -9.1875 L 1.46875 -9.1875 L 1.46875 -8.078125 L 13.546875 -8.078125 Z M 12.515625 -3.984375 L 12.515625 -5.078125 L 2.28125 -5.078125 L 2.28125 -3.984375 Z M 0.890625 -0.703125 L 0.890625 0.390625 L 14.0625 0.390625 L 14.0625 -0.703125 Z M 0.890625 -0.703125 "/>
  <path id="glyph0-1" d="M 11.328125 -2.953125 L 0.921875 -2.953125 L 0.921875 -1.953125 L 11.328125 -1.953125 Z M 13.75 -5.65625 L 3.984375 -5.65625 L 3.984375 -9.984375 L 11.125 -9.984375 C 11 -8.640625 10.84375 -8.03125 10.671875 -7.828125 C 10.546875 -7.6875 10.40625 -7.6875 10.140625 -7.6875 C 9.890625 -7.6875 9.140625 -7.6875 8.375 -7.765625 C 8.5 -7.5 8.609375 -7.09375 8.625 -6.828125 C 9.390625 -6.765625 10.171875 -6.765625 10.5625 -6.765625 C 11 -6.796875 11.328125 -6.890625 11.578125 -7.140625 C 11.921875 -7.5 12.125 -8.375 12.296875 -10.5 L 12.34375 -11.015625 L 6.921875 -11.015625 C 7.171875 -11.4375 7.421875 -11.953125 7.671875 -12.453125 L 6.5 -12.625 C 6.359375 -12.15625 6.078125 -11.515625 5.8125 -11.015625 L 2.90625 -11.015625 L 2.90625 -4.625 L 12.640625 -4.625 C 12.484375 -1.65625 12.28125 -0.421875 11.953125 -0.109375 C 11.8125 0.03125 11.625 0.0625 11.359375 0.0625 C 11 0.0625 10.125 0.046875 9.1875 -0.03125 C 9.40625 0.265625 9.53125 0.703125 9.5625 1.015625 C 10.4375 1.078125 11.3125 1.09375 11.765625 1.046875 C 12.265625 1 12.578125 0.921875 12.890625 0.5625 C 13.34375 0.0625 13.53125 -1.359375 13.75 -5.125 Z M 13.75 -5.65625 "/>
  <path id="glyph0-0" d="M 1.5 1.796875 L 13.5 1.796875 L 13.5 -13.203125 L 1.5 -13.203125 Z M 7.5 -6.3125 L 2.734375 -12.453125 L 12.265625 -12.453125 Z M 7.984375 -5.703125 L 12.75 -11.828125 L 12.75 0.4375 Z M 2.734375 1.046875 L 7.5 -5.078125 L 12.265625 1.046875 Z M 2.25 -11.828125 L 7.015625 -5.703125 L 2.25 0.4375 Z M 2.25 -11.828125 "/>
 </defs>
 <image width="497" xlink:href="svg/9/34_1.jpg" height="279"/>
 <g>
  <path d="M 381.167969 150.433594 L 370.761719 150.433594 L 370.761719 151.433594 L 381.167969 151.433594 Z M 383.589844 147.730469 L 373.824219 147.730469 L 373.824219 143.402344 L 380.964844 143.402344 C 380.839844 144.746094 380.683594 145.355469 380.511719 145.558594 C 380.386719 145.699219 380.246094 145.699219 379.980469 145.699219 C 379.730469 145.699219 378.980469 145.699219 378.214844 145.621094 C 378.339844 145.886719 378.449219 146.292969 378.464844 146.558594 C 379.230469 146.621094 380.011719 146.621094 380.402344 146.621094 C 380.839844 146.589844 381.167969 146.496094 381.417969 146.246094 C 381.761719 145.886719 381.964844 145.011719 382.136719 142.886719 L 382.183594 142.371094 L 376.761719 142.371094 C 377.011719 141.949219 377.261719 141.433594 377.511719 140.933594 L 376.339844 140.761719 C 376.199219 141.230469 375.917969 141.871094 375.652344 142.371094 L 372.746094 142.371094 L 372.746094 148.761719 L 382.480469 148.761719 C 382.324219 151.730469 382.121094 152.964844 381.792969 153.277344 C 381.652344 153.417969 381.464844 153.449219 381.199219 153.449219 C 380.839844 153.449219 379.964844 153.433594 379.027344 153.355469 C 379.246094 153.652344 379.371094 154.089844 379.402344 154.402344 C 380.277344 154.464844 381.152344 154.480469 381.605469 154.433594 C 382.105469 154.386719 382.417969 154.308594 382.730469 153.949219 C 383.183594 153.449219 383.371094 152.027344 383.589844 148.261719 Z M 383.589844 147.730469 " transform=" rotate(  340 399.841 160.302) " style="fill:none;stroke-width:2;stroke-linecap:butt;stroke-linejoin:round;stroke:rgb(100%,100%,100%);stroke-opacity:0.6;stroke-miterlimit:10;"/>
  <path d="M 390.761719 143.480469 C 390.449219 142.777344 389.667969 141.683594 388.980469 140.902344 L 388.042969 141.355469 C 388.730469 142.183594 389.480469 143.308594 389.777344 144.011719 Z M 398.386719 144.199219 L 394.777344 144.199219 C 395.417969 143.355469 396.136719 142.214844 396.683594 141.199219 L 395.558594 140.839844 C 395.089844 141.871094 394.261719 143.277344 393.574219 144.199219 L 386.308594 144.199219 L 386.308594 145.308594 L 398.386719 145.308594 Z M 397.355469 149.402344 L 397.355469 148.308594 L 387.121094 148.308594 L 387.121094 149.402344 Z M 385.730469 152.683594 L 385.730469 153.777344 L 398.902344 153.777344 L 398.902344 152.683594 Z M 385.730469 152.683594 " transform=" rotate(  340 399.841 160.302) " style="fill:none;stroke-width:2;stroke-linecap:butt;stroke-linejoin:round;stroke:rgb(100%,100%,100%);stroke-opacity:0.6;stroke-miterlimit:10;"/>
  <path d="M 413.902344 144.199219 L 413.902344 143.121094 L 406.277344 143.121094 C 406.527344 142.449219 406.777344 141.777344 406.996094 141.105469 L 405.839844 140.824219 C 405.636719 141.589844 405.371094 142.355469 405.042969 143.121094 L 400.792969 143.121094 L 400.792969 144.199219 L 404.558594 144.199219 C 403.558594 146.183594 402.183594 148.027344 400.371094 149.261719 C 400.589844 149.496094 400.871094 149.917969 401.027344 150.199219 C 401.839844 149.636719 402.558594 148.980469 403.199219 148.246094 L 403.199219 153.167969 L 404.308594 153.167969 L 404.308594 147.980469 L 407.496094 147.980469 L 407.496094 154.558594 L 408.605469 154.558594 L 408.605469 147.980469 L 411.980469 147.980469 L 411.980469 151.714844 C 411.980469 151.933594 411.902344 151.996094 411.652344 152.011719 C 411.417969 152.011719 410.542969 152.027344 409.589844 151.996094 C 409.746094 152.292969 409.902344 152.699219 409.949219 152.996094 C 411.246094 153.011719 412.027344 152.996094 412.480469 152.824219 C 412.949219 152.652344 413.089844 152.339844 413.089844 151.730469 L 413.089844 146.933594 L 408.605469 146.933594 L 408.605469 144.933594 L 407.496094 144.933594 L 407.496094 146.933594 L 404.214844 146.933594 C 404.824219 146.074219 405.339844 145.167969 405.792969 144.199219 Z M 413.902344 144.199219 " transform=" rotate(  340 399.841 160.302) " style="fill:none;stroke-width:2;stroke-linecap:butt;stroke-linejoin:round;stroke:rgb(100%,100%,100%);stroke-opacity:0.6;stroke-miterlimit:10;"/>
  <path d="M 419.667969 142.542969 C 420.605469 142.339844 421.480469 142.105469 422.167969 141.855469 L 421.417969 140.980469 C 420.105469 141.511719 417.761719 141.949219 415.777344 142.230469 C 415.917969 142.480469 416.042969 142.839844 416.105469 143.105469 C 416.902344 143.011719 417.730469 142.886719 418.574219 142.746094 L 418.574219 145.246094 L 415.652344 145.246094 L 415.652344 146.277344 L 418.292969 146.277344 C 417.621094 148.152344 416.417969 150.199219 415.277344 151.339844 C 415.480469 151.621094 415.777344 152.074219 415.902344 152.371094 C 416.871094 151.324219 417.839844 149.636719 418.574219 147.902344 L 418.574219 154.496094 L 419.667969 154.496094 L 419.667969 147.949219 C 420.308594 148.777344 421.152344 149.902344 421.496094 150.480469 L 422.167969 149.558594 C 421.792969 149.089844 420.246094 147.261719 419.667969 146.667969 L 419.667969 146.277344 L 422.277344 146.277344 L 422.277344 145.246094 L 419.667969 145.246094 Z M 423.886719 151.558594 L 423.886719 143.292969 L 427.230469 143.292969 L 427.230469 151.558594 Z M 422.792969 142.230469 L 422.792969 153.871094 L 423.886719 153.871094 L 423.886719 152.636719 L 427.230469 152.636719 L 427.230469 153.761719 L 428.339844 153.761719 L 428.339844 142.230469 Z M 422.792969 142.230469 " transform=" rotate(  340 399.841 160.302) " style="fill:none;stroke-width:2;stroke-linecap:butt;stroke-linejoin:round;stroke:rgb(100%,100%,100%);stroke-opacity:0.6;stroke-miterlimit:10;"/>
  <path d="M 393.792969 160.703125 L 393.792969 168.46875 C 393.792969 168.671875 393.714844 168.734375 393.496094 168.734375 C 393.277344 168.75 392.527344 168.75 391.714844 168.734375 C 391.855469 169.046875 392.042969 169.515625 392.089844 169.8125 C 393.183594 169.8125 393.886719 169.796875 394.324219 169.625 C 394.761719 169.4375 394.902344 169.109375 394.902344 168.484375 L 394.902344 160.703125 Z M 391.324219 163.09375 C 390.886719 164.65625 390.167969 166.25 389.324219 167.3125 C 389.589844 167.4375 390.058594 167.71875 390.277344 167.875 C 391.105469 166.765625 391.886719 165.03125 392.402344 163.3125 Z M 396.277344 163.328125 C 397.105469 164.59375 397.964844 166.296875 398.277344 167.4375 L 399.292969 166.96875 C 398.949219 165.859375 398.089844 164.171875 397.199219 162.921875 Z M 397.136719 167.46875 C 396.105469 170.78125 393.808594 172.59375 389.746094 173.390625 C 389.980469 173.640625 390.261719 174.078125 390.355469 174.40625 C 394.652344 173.40625 397.089844 171.40625 398.183594 167.78125 Z M 386.261719 161.59375 C 387.230469 162.046875 388.402344 162.78125 388.964844 163.3125 L 389.621094 162.4375 C 389.027344 161.875 387.839844 161.203125 386.886719 160.796875 Z M 385.464844 165.609375 C 386.449219 166.046875 387.636719 166.734375 388.230469 167.25 L 388.839844 166.3125 C 388.246094 165.828125 387.027344 165.171875 386.074219 164.796875 Z M 385.949219 173.421875 L 386.902344 174.15625 C 387.714844 172.765625 388.714844 170.90625 389.449219 169.328125 L 388.621094 168.625 C 387.792969 170.328125 386.714844 172.28125 385.949219 173.421875 Z M 385.949219 173.421875 " transform=" rotate(  340 399.841 160.302) " style="fill:none;stroke-width:2;stroke-linecap:butt;stroke-linejoin:round;stroke:rgb(100%,100%,100%);stroke-opacity:0.6;stroke-miterlimit:10;"/>
  <path d="M 406.886719 163.984375 L 407.949219 163.984375 L 407.949219 162.859375 L 410.402344 162.859375 L 410.402344 163.984375 L 411.480469 163.984375 L 411.480469 162.859375 L 413.980469 162.859375 L 413.980469 161.90625 L 411.480469 161.90625 L 411.480469 160.671875 L 410.402344 160.671875 L 410.402344 161.90625 L 407.949219 161.90625 L 407.949219 160.671875 L 406.886719 160.671875 L 406.886719 161.90625 L 404.589844 161.90625 L 404.589844 162.859375 L 406.886719 162.859375 Z M 404.261719 162.796875 C 403.761719 162.265625 402.730469 161.515625 401.902344 161.015625 L 401.230469 161.75 C 402.027344 162.28125 403.042969 163.078125 403.527344 163.625 Z M 403.621094 166.5625 C 403.074219 166.078125 402.011719 165.40625 401.183594 164.96875 L 400.527344 165.734375 C 401.371094 166.21875 402.417969 166.921875 402.933594 167.421875 Z M 403.089844 168.59375 C 402.417969 170.265625 401.480469 172.171875 400.824219 173.328125 L 401.839844 173.96875 C 402.542969 172.59375 403.355469 170.78125 403.980469 169.25 Z M 406.371094 166.96875 L 412.027344 166.96875 L 412.027344 168.03125 L 406.371094 168.03125 Z M 406.371094 165.109375 L 412.027344 165.109375 L 412.027344 166.171875 L 406.371094 166.171875 Z M 414.058594 171.0625 L 414.058594 170.109375 L 409.433594 170.109375 C 409.527344 169.71875 409.589844 169.296875 409.652344 168.875 L 413.089844 168.875 L 413.089844 164.265625 L 405.308594 164.265625 L 405.308594 168.875 L 408.558594 168.875 C 408.496094 169.3125 408.433594 169.734375 408.324219 170.109375 L 404.324219 170.109375 L 404.324219 171.0625 L 407.964844 171.0625 C 407.371094 172.234375 406.199219 173.015625 403.808594 173.484375 C 404.027344 173.703125 404.292969 174.140625 404.386719 174.375 C 407.214844 173.765625 408.542969 172.6875 409.167969 171.0625 C 409.996094 172.734375 411.527344 173.859375 413.621094 174.375 C 413.761719 174.09375 414.058594 173.65625 414.292969 173.4375 C 412.464844 173.09375 411.042969 172.28125 410.230469 171.0625 Z M 414.058594 171.0625 " transform=" rotate(  340 399.841 160.302) " style="fill:none;stroke-width:2;stroke-linecap:butt;stroke-linejoin:round;stroke:rgb(100%,100%,100%);stroke-opacity:0.6;stroke-miterlimit:10;"/>
  <g transform=" rotate(  340 399.841 160.302) " style="fill:rgb(62.745098%,49.411765%,10.980392%);fill-opacity:1;">
   <use xlink:href="#glyph0-1" y="153.387307" x="369.841432"/>
   <use xlink:href="#glyph0-2" y="153.387307" x="384.841432"/>
   <use xlink:href="#glyph0-3" y="153.387307" x="399.841432"/>
   <use xlink:href="#glyph0-4" y="153.387307" x="414.841432"/>
   <use xlink:href="#glyph0-5" y="173.217307" x="384.841432"/>
   <use xlink:href="#glyph0-6" y="173.217307" x="399.841432"/>
  </g>
 </g>
</svg>

<svg xmlns="http://www.w3.org/2000/svg" xmlns:xlink="http://www.w3.org/1999/xlink" viewBox="0 0 497 279"> <defs overflow="visible" style="stroke:none">  <path id="f" d="M7-9.2h1.1v-1.2h2.5v1.2h1v-1.2h2.5v-1h-2.5v-1h-1v1.1H8v-1.2h-.9v1.2H4.7v1H7Zm-2.6-1.2a13 13 0 0 0-2.3-1.8l-.7.7a14 14 0 0 1 2.3 2Zm-.6 3.7a14.6 14.6 0 0 0-2.5-1.5l-.6.7C1.5-7 2.6-6.3 3-5.8Zm-.5 2A43.9 43.9 0 0 1 1 .2l1 .6A66 66 0 0 0 4.1-4Zm3.2-1.4h5.7v.8H6.5Zm0-2.2h5.7V-7H6.5Zm7.7 6.2v-1.1H9.6l.2-1h3.4V-9H5.5v4.7h3.2l-.2 1.2h-4v1H8C7.5-1 6.4-.3 4 .2c.2.3.5.7.5 1C7.4.5 8.7-.5 9.3-2.2c.9 1.7 2.4 2.8 4.5 3.4a4 4 0 0 1 .7-1c-1.9-.2-3.3-1.1-4.1-2.4Zm0-.1"/>  <path id="e" d="M9-12.5v7.8c0 .2-.1.2-.3.2H6.9l.3 1h2.4c.3-.4.4-.7.4-1.3v-7.7Zm-2.5 2.4C6-8.6 5.3-7 4.5-6a8 8 0 0 1 1 .7A15.7 15.7 0 0 0 7.4-10Zm5 .1a17 17 0 0 1 1.9 4.2l1-.5a16.5 16.5 0 0 0-2-4Zm.7 4.3C11.3-2.5 9-.8 4.9.2l.6 1c4.3-1 6.8-3 7.8-6.6ZM1.4-11.8a12 12 0 0 1 2.7 2l.7-1C4.2-11.3 3-12 2-12.4ZM.6-7.6A13 13 0 0 1 3.4-6L4-7a12.3 12.3 0 0 0-2.8-1.3ZM1.1.3l1 .6a63.4 63.4 0 0 0 2.5-4.8l-.8-.7C3-2.9 1.8-.9 1 .2Zm0-.1"/>  <path id="d" d="M4.8-10.8a20 20 0 0 0 2.5-.7l-.7-1c-1.3.7-3.7 1.1-5.7 1.4l.4.9 2.4-.5v2.6H.8v1h2.7c-.7 1.9-2 4-3 5L1-1c1-1 2-2.6 2.7-4.4v6.5h1.1v-6.5L6.7-3l.6-1-2.5-2.6v-.5h2.6v-1H4.8Zm4.2 9v-8.3h3.4v8.3Zm-1-9.4V.5h1V-.8h3.4V.4h1.1v-11.6Zm0 0"/>  <path id="c" d="M14-9.2v-1H6.5l.7-2.1-1.2-.4-.8 2.4H1v1.1h3.7c-1 2-2.4 3.8-4.2 5l.7 1.1c.8-.6 1.5-1.3 2.2-2.1v5.1h1v-5.3h3.4v6.6h.9v-6.6h3.5v3.7c-.1.2-.1.3-.4.3h-2l.2 1c1.4 0 2.1 0 2.6-.2.5-.1.7-.4.7-1v-5H8.8v-1.9H7.7v2H4.4C5-7.3 5.5-8.2 6-9.2Zm0 0"/>  <path id="b" d="m6-10-2-2.4-.8.4c.7.8 1.4 2 1.7 2.6Zm7.4.9H10c.6-.9 1.3-2.1 2-3.1l-1.4-.3c-.3 1-1.2 2.4-1.9 3.3H1.5V-8h12ZM12.5-4v-1H2.3v1ZM1-.7v1h13v-.9Zm-.1 0"/>  <path id="a" d="M11.3-3H1v1h10.3Zm2.4-2.7H4V-10h7c0 1.4-.2 2-.3 2.2l-.7.1H8.4a3 3 0 0 1 .2.8h2c.4.1.7.1 1-.1.3-.5.4-1.4.7-3.5v-.5H7l.7-1.5-1.2-.1a10 10 0 0 1-.7 1.6H3v6.4h9.6c-.1 3-.3 4.2-.6 4.5l-.6.1H9.2l.4 1h2.2c.5 0 .8 0 1-.4.6-.6.8-2 1.1-5.7Zm.1 0"/>  <path d="M1.5 1.8h12v-15h-12Zm6-8.1-4.8-6.2h9.6Zm.5.6 4.8-6.1V.4ZM2.7 1l4.8-6 4.8 6Zm-.5-12.8L7-5.7 2.2.4Zm.1 0"/> </defs> <image xlink:href="svg/9/34_1.jpg" width="497" height="279"/> <path d="M381.2 150.4h-10.4v1h10.4Zm2.4-2.7h-9.8v-4.3h7.2c-.2 1.3-.3 2-.5 2.2l-.5.1h-1.8a3 3 0 0 1 .3.8h1.9c.4.1.8 0 1-.3.4-.2.6-1.2.7-3.2v-.6h-5.2l.6-1.5-1.2-.1a10 10 0 0 1-.6 1.6h-3v6.4h9.8c-.2 3-.5 4.2-.7 4.5l-.6.1H379c.2.3.4.6.4 1h2.2c.5 0 .8 0 1.1-.4.5-.6.7-2 .9-5.7Zm7.2-4.2c-.4-.7-1.1-1.8-1.8-2.6l-1 .5c.7.8 1.5 2 1.8 2.6Zm7.6.7h-3.6l1.9-3-1.1-.4c-.6 1-1.3 2.5-2 3.4h-7.3v1.1h12Zm-1 5.2v-1H387v.9Zm-11.7 3.3v1H399v-.9Zm28.2-8.5v-1h-7.6l.7-2.1-1.2-.4c-.2.9-.4 1.7-.8 2.4h-4.2v1.1h3.8c-1 2-2.4 3.8-4.2 5l.6 1.1c.8-.7 1.6-1.3 2.2-2.1v5h1.1V148h3.2v6.6h1.1V148h3.4v3.7c0 .3-.1.3-.3.3h-2.1l.3 1c1.3 0 2.1 0 2.6-.2.4-.1.5-.5.5-1v-5h-4.4V145h-1.1v2h-3.3c.6-.9 1.1-1.8 1.6-2.8Zm5.8-1.7a20 20 0 0 0 2.5-.5l-.8-1.1c-1.3.7-3.6 1.1-5.6 1.4l.2.9 2.6-.6v2.6h-3v1h2.8c-.8 2.1-2 4.1-3.1 5.2l.6.9c1-.9 2-2.6 2.7-4.3v6.5h1v-6.6c.8.9 1.7 2.1 2 2.6l.6-1-2.5-2.7v-.5h2.6v-1h-2.6Zm4.2 9v-8.1h3.3v8.2Zm-1.1-9.2V154h1v-1.4h3.5v1.2h1v-11.6Zm-29 18.4v7.8c0 .2 0 .2-.3.2h-1.8l.4 1.1c.9 0 1.8 0 2.2-.2.5-.2.7-.5.7-1.1v-7.8Zm-2.5 2.4c-.3 1.6-1.1 3.2-2 4.2a8 8 0 0 1 1 .7 15.7 15.7 0 0 0 2.1-4.7Zm5 .2a17 17 0 0 1 2 4.1l1-.4a16.5 16.5 0 0 0-2.1-4Zm.7 4.2c-.9 3.3-3.2 5-7.3 5.9.3.2.6.6.7 1 4.3-1 6.6-3 7.8-6.6Zm-10.7-6a12 12 0 0 1 2.7 1.9l.6-1c-.6-.4-1.8-1.2-2.6-1.6Zm-.8 4.2a13 13 0 0 1 2.7 1.6l.6-1a12.3 12.3 0 0 0-2.7-1.5Zm.4 7.7 1.1.8a63.4 63.4 0 0 0 2.4-4.9l-.8-.7c-.8 1.7-1.9 3.7-2.6 4.8Zm21-9.4h1v-1.1h2.5v1h1v-.9h2.6v-1.1h-2.5v-1.2h-1.1v1.2h-2.5v-1.2h-.9v1.2h-2.4v1.1h2.3Zm-2.6-1.2a13 13 0 0 0-2.4-1.8l-.7.8a14 14 0 0 1 2.3 1.8Zm-.7 3.8a14.6 14.6 0 0 0-2.4-1.6l-.7.7c.9.5 2 1.3 2.5 1.7Zm-.5 2a43.9 43.9 0 0 1-2.3 4.7l1 .7a66 66 0 0 0 2.2-4.8Zm3.3-1.6h5.6v1h-5.6Zm0-2h5.6v1.1h-5.6Zm7.6 6.1V170h-4.6l.3-1h3.3v-4.7h-7.7v4.6h3.3l-.3 1.1h-4v1.1h3.7c-.6 1.1-1.8 1.9-4.2 2.4l.6.9c2.8-.6 4.1-1.7 4.8-3.4.8 1.7 2.3 2.9 4.4 3.4a4 4 0 0 1 .7-1c-1.8-.3-3.3-1.1-4-2.3Zm0-.1" style="fill:none;stroke-width:2;stroke-linecap:butt;stroke-linejoin:round;stroke:#fff;stroke-opacity:.6;stroke-miterlimit:10" transform=" rotate(  340 399.841 160.302) "/> <g style="fill:#a07e1c;fill-opacity:1" transform=" rotate(  340 399.841 160.302) ">  <use xlink:href="#a" x="369.8" y="153.4"/>  <use xlink:href="#b" x="384.8" y="153.4"/>  <use xlink:href="#c" x="399.8" y="153.4"/>  <use xlink:href="#d" x="414.8" y="153.4"/>  <use xlink:href="#e" x="384.8" y="173.2"/>  <use xlink:href="#f" x="399.8" y="173.2"/> </g></svg>
